icon-themes/breeze_svg/cmd/sc_dbdistinctvalues.svg

<svg viewBox="0 0 16 16" xmlns="http://www.w3.org/2000/svg">/&gt;<path d="m3 2-1 1v1 .3125l4 5.65625v.03125 2l1 .5v-1.5-1-.375l-4-5.625v-1h4.25 1.75 4v1l-2.125 3h1.21875l1.90625-2.6875v-1.3125l-1-1h-4-1.75zm9.5625 6.46875-.78125 1.28125h-2.78125v1h2.1875l-.59375 1h-1.59375v1h1l-.4375.71875.875.53125.75-1.25h2.8125v-1h-2.21875l.59375-1h1.625v-1h-1l.4375-.75z" fill="#4d4d4d"/></svg>

<?xml version="1.0" encoding="UTF-8" standalone="no"?>
<svg
   xmlns:dc="http://purl.org/dc/elements/1.1/"
   xmlns:cc="http://creativecommons.org/ns#"
   xmlns:rdf="http://www.w3.org/1999/02/22-rdf-syntax-ns#"
   xmlns:svg="http://www.w3.org/2000/svg"
   xmlns="http://www.w3.org/2000/svg"
   xmlns:sodipodi="http://sodipodi.sourceforge.net/DTD/sodipodi-0.dtd"
   xmlns:inkscape="http://www.inkscape.org/namespaces/inkscape"
   viewBox="0 0 16 16"
   version="1.1"
   id="svg4"
   sodipodi:docname="sc_dbdistinctvalues.svg"
   inkscape:version="0.92.4 (unknown)"
   inkscape:export-filename="/media/rizmut/Data/Rizmut/FOSS/LibreOffice/libreoffice/icon-themes/breeze/cmd/sc_dbdistinctvalues.png"
   inkscape:export-xdpi="96"
   inkscape:export-ydpi="96"><metadata
   id="metadata10">
  <rdf:RDF>
    <cc:Work
       rdf:about="">
      <dc:format>image/svg+xml</dc:format>
      <dc:type
         rdf:resource="http://purl.org/dc/dcmitype/StillImage" />
    </cc:Work>
  </rdf:RDF>
</metadata>
<defs
   id="defs8" />
<sodipodi:namedview
   pagecolor="#ffffff"
   bordercolor="#666666"
   borderopacity="1"
   objecttolerance="10"
   gridtolerance="10"
   guidetolerance="10"
   inkscape:pageopacity="0"
   inkscape:pageshadow="2"
   inkscape:window-width="1360"
   inkscape:window-height="714"
   id="namedview6"
   showgrid="true"
   inkscape:zoom="20.85965"
   inkscape:cx="-1.3274609"
   inkscape:cy="4.401849"
   inkscape:window-x="0"
   inkscape:window-y="28"
   inkscape:window-maximized="1"
   inkscape:current-layer="svg4">
  <inkscape:grid
     type="xygrid"
     id="grid817" />
</sodipodi:namedview>
/&gt;<path
   d="M 3,2 2,3 V 4 4.3125 L 6,9.96875 V 10 12 l 1,0.5 V 11 10 9.625 L 3,4 V 3 H 7.25 9 13 v 1 l -2.125,3 h 1.21875 L 14,4.3125 V 3 L 13,2 H 9 7.25 Z"
   id="path2"
   inkscape:connector-curvature="0"
   style="fill:#4d4d4d"
   sodipodi:nodetypes="ccccccccccccccccccccccccc" />
<path
   sodipodi:nodetypes="ccccccccccccccccccccc"
   style="fill:#1d99f3;fill-opacity:1"
   inkscape:connector-curvature="0"
   id="path819"
   d="M 12.5625,8.71875 11.78125,10 H 9 v 1 h 2.1875 l -0.59375,1 H 9 v 1 h 1 L 9.5625,13.71875 10.4375,14.25 11.1875,13 H 14 V 12 H 11.78125 L 12.375,11 H 14 v -1 h -1 l 0.4375,-0.75 z" />
</svg>
